app2/images/natural.svg

<svg width="33" height="36" viewBox="0 0 33 36" fill="none" xmlns="http://www.w3.org/2000/svg">
<path d="M31.2427 0.485055C31.1951 0.308837 31.0766 0.160572 30.9156 0.0761722C30.5981 -0.0929894 30.2044 0.0290421 30.0363 0.34873C30.0358 0.349545 30.0354 0.350359 30.035 0.351173C30.035 0.369265 26.7389 6.80645 16.6206 7.92816C15.3008 8.06992 14.0106 8.41656 12.7962 8.9558C10.6224 9.90717 8.82705 11.563 7.6957 13.6598C6.63949 15.6294 6.20204 17.8753 6.44125 20.1006C6.61747 21.7227 7.15564 23.2838 8.01561 24.667C6.2184 25.966 0.517653 30.4565 0.00365096 35.2763C-0.0340904 35.6359 0.225067 35.9583 0.582352 35.9963C0.939727 36.0343 1.2599 35.7734 1.29764 35.4138C1.76851 31.1114 7.117 26.9394 8.78481 25.7308C10.7869 28.2058 13.7846 29.6026 17.0017 29.8305C19.1668 29.9712 21.3346 29.5995 23.3314 28.745C25.499 27.8294 27.4134 26.3977 28.91 24.5729C32.7668 19.869 34.6035 11.9627 31.2427 0.485055ZM9.15863 24.0193C8.91062 23.6261 8.69199 23.2149 8.50445 22.7891C8.10978 21.8905 7.85521 20.9361 7.74962 19.9594C7.52946 17.9996 7.90544 16.0186 8.82795 14.2785C9.82504 12.4337 11.4067 10.9778 13.321 10.1426C14.4154 9.66293 15.5769 9.35663 16.7644 9.23442C23.4428 8.51073 27.3715 5.51829 29.3988 3.34723C28.2077 7.29485 26.157 10.9254 23.3961 13.9746L23.0007 9.96534C22.9806 9.60422 22.6735 9.32786 22.3147 9.34813C21.956 9.36839 21.6815 9.67758 21.7016 10.0387C21.7026 10.0565 21.7043 10.0743 21.7067 10.092L22.2136 15.2446C19.1907 18.3312 14.9888 21.4321 9.15863 24.0193ZM27.9035 23.7335V23.7371C26.5438 25.4036 24.802 26.7125 22.8282 27.5509C21.0131 28.3231 19.0431 28.6553 17.0771 28.5206C14.3403 28.3811 11.772 27.1475 9.94222 25.094C12.0865 24.1388 14.1597 23.03 16.1462 21.7759L21.8577 22.8614C22.2127 22.9174 22.5455 22.6731 22.6011 22.3158C22.6548 21.9711 22.4306 21.6445 22.0913 21.5733L17.7026 20.7374C19.729 19.3363 21.6154 17.7404 23.335 15.9719C23.3666 15.9446 23.3954 15.9143 23.4213 15.8815C27.9574 11.1269 29.8876 6.4229 30.6928 3.52815C32.9141 13.0663 31.214 19.7025 27.9035 23.7335Z" fill="#F8C307"/>
</svg>

<svg width="33" height="36" viewBox="0 0 33 36" fill="none" xmlns="http://www.w3.org/2000/svg"><path d="M31.243.485a.654.654 0 00-1.208-.134c0 .018-3.296 6.455-13.414 7.577a12.79 12.79 0 00-3.825 1.028 10.652 10.652 0 00-5.1 4.704A11.117 11.117 0 006.44 20.1a10.873 10.873 0 001.575 4.567C6.218 25.966.518 30.457.004 35.277a.654.654 0 00.578.72.652.652 0 00.716-.583c.47-4.303 5.819-8.475 7.487-9.683 2.002 2.475 5 3.872 8.217 4.1a13.81 13.81 0 006.33-1.086 14.527 14.527 0 005.578-4.172c3.857-4.704 5.693-12.61 2.333-24.088zM9.159 24.02a9.433 9.433 0 01-.655-1.23 9.604 9.604 0 01-.754-2.83 9.796 9.796 0 011.078-5.68 9.37 9.37 0 014.493-4.136 11.513 11.513 0 013.443-.909c6.679-.723 10.608-3.716 12.635-5.887a27.794 27.794 0 01-6.003 10.628l-.395-4.01a.652.652 0 00-.686-.617.653.653 0 00-.608.744l.507 5.153c-3.023 3.086-7.225 6.187-13.055 8.774zm18.745-.285v.003a13.225 13.225 0 01-5.076 3.814 12.505 12.505 0 01-5.75.97 10.257 10.257 0 01-7.136-3.427 48.882 48.882 0 006.204-3.318l5.712 1.085a.655.655 0 00.234-1.288l-4.39-.836a37.998 37.998 0 005.72-4.855c4.535-4.755 6.466-9.46 7.27-12.354 2.222 9.538.522 16.175-2.788 20.206z" fill="#F8C307"/></svg>
